X:139
M:C |
L:1/8
K:Eb
E2B2 (eB)(cG) | (AF)(GA) D2B,2 | (Bc)(de) (fg)(ab) | gdec BA G2 | ABcd ecBG | AGFE {E}D2d2 |
ecBG cAGF | BGAF E4 :: B2e2 bgaf | gedc B2 AG | ABcd efga | (g/a/b)ag {g}f3g |
b(g/a/b)g a(f/g/a)f | g(e/f/g)e B3d | e(c/d/e)c B(G/A/B)G | AFBG E4 :: B,EGE B,EGE | cAGF EDCB, |

